X:1
T:Fantasy in C minor BWV 906
T:Fantasy/Fantasia in C minor BWV 906 
T:J.S. Bach Arr. Harry Allen 
T:Majestically
C:J.S. Bach
%%score { ( 1 3 ) | 2 }
L:1/8
Q:1/4=70
M:4/4
K:Eb
V:1 treble nm="Piano" snm="Pno."
V:3 treble 
V:2 bass 
V:1
 (3c'/g/e/(3c/G/E/ C[egc'] [egc'][dg=b] Pf3/2{xxxxxxxxxxxx}=e/4f/4 | %1
 (3_b/g/=e/(3c/G/=E/ C[cgb] [cgb][cf=a] Pc3/2{xxxxxxxxxxxx}=B/4c/4 | %2
 (3_a/f/d/(3=B/F/D/ =B,[Bdfa] [Bdfa][ceg] z2 | %3
 (3z/ c/d/(3e/f/g/ (3a/g/f/(3e/d/c/ (3=B/d/c/(3B/=A/G/ (3F/_A/G/(3F/E/D/ | %4
 MEC (3z/ d/e/(3=e/f/^f/ (3(g/f/)=a/(3(_e/d/)g/ (3(c/=B/)d/(3(A/G/)=f/ | %5
 (3=e/_d/B/G- (3G/c/d/(3=d/_e/=e/ (3(f/e/)g/(3(_d/c/)f/ (3(B/=A/)c/(3(_G/F/)_e/ | %6
 (3d/=B/A/F (3z/ f/e/(3d/c/B/ (3B/c/G/E (3z/ e/d/(3c/B/c/ | %7
 PD2-{xxxxxxxxxxxxxxxxxxxx} D3/2D/4E/4 ED z2 | %8
 (3z/ B/G/(3_D/B/G/ (3D/B/G/(3D/B/G/ (3C/A/F/(3C/A/F/ (3C/A/F/(3C/A/F/ | %9
 (3_C/A/F/(3C/A/F/ (3C/A/F/(3C/A/F/ (3B,/B/G/(3B,/B/G/ (3B,/B/G/(3B,/B/G/ | %10
 (3C/D/E/(3F/G/A/ (3B,/A/G/(3F/E/D/ (3E/F/G/(3A/B/c/ (3D/c/B/(3A/G/F/ | %11
 (3G/e/d/(3c/B/A/ (3G/B/e/(3F/A/d/ (3e/B/G/(3c/A/E/ (3B/G/E/(3A/F/D/ | %12
 (3G/E/B,/(3A/E/C/ (3G/E/B,/(3F/D/[I:staff +1]A,/ (3G,/B,/[I:staff -1]E/(3C/E/A/ (E{/xx}PD/>)E/ | %13
 Ee- (3e/B/=A/(3_A/G/^F/ Gd- (3d/e/=e/(3f/^f/g/ | %14
 PB2- (3B/=A/G/(3^F/G/=E/ (3F/D/F/(3A/c/_e/ (3=a/e/d/(3c/B/A/ | %15
 (3B/d/g/(3e/d/c/ (3B/=A/G/(3A/G/^F/ (3G/D/B,/G, z2 :: %16
 (3g/d/_B/(3G/D/_B,/ G,[dgb] [dgb][d^f=a] Pd3/2{xxxxxxxxxxxx}^c/4d/4 | %17
 (3=c'/=a/^f/(3d/=A/^F/ D[d^f=ac'] [dfac'][dgb] Pd3/2{xxxxxxxxxxxx}^c/4d/4 | %18
 (3=f/d/=B/(3_A/=F/D/ =B,f- (3f/g/e/(3c/G/E/ Ce- | %19
 (3e/c/=A/(3_G/E/C/ =A,e- (3e/f/d/(3_B/F/D/ _B,d- | %20
 (3d/G/_A/(3=A/B/=B/ c/4B/4c3/2- (3c/d/c/(3=B/_B/=A/ Bg | z8 | z8 | z8 | z8 | z8 | z8 | z8 | z8 | %29
 z8 | z8 | z8 | z8 | z8 | z8 | z8 | z8 | z8 | z8 | z8 | z8 | z8 | z8 | z8 | z8 | z8 | z8 | z8 | %48
 z8 | z8 | z8 | z8 | z8 | z8 | z8 | z8 | z8 | z8 | z8 | z8 | z8 | z8 | z8 | z8 | z8 | z8 | z8 | %67
 z8 | z8 | z8 | z8 | z8 | z8 | z8 | z8 | z8 | z8 | z8 | z8 | z8 | z8 | z8 | z8 | z8 | z8 | z8 | %86
 z8 | z8 | z8 | z8 | z8 | z8 | z8 | z8 | z8 | z8 | z8 | z8 | z8 |] %99
V:2
 C,,C, (3z/ G,/F,/(3E,/D,/C,/ MG,G,, z2 | =E,,=E, (3z/ G,/F,/(3E,/D,/C,/ MF,F,, z2 | %2
 D,,D, (3z/ F,/E,/(3D,/C,/=B,,/ (3E,/G,,/=A,,/(3A,,/C,/D,/ (3E,/C,/D,/(3E,/F,/G,/ | %3
 A,G,F,^F, MG,G,, z2 | (3C,,/E,,/G,,/(3C,/E,/G,/ CC, PC,=B,, z2 | %5
 (3C,,/=E,,/G,,/(3C,/=E,/G,/ B,B,, PB,,=A,, z2 | %6
 (3A,,/=B,,/D,/(3F,/A,/=B,/ DA,, (3G,,/C,/E,/(3G,/B,/C/ EG,, | %7
 ^F,,/^F,/F,/F,/ F,/F,/F,/F,/ G,-(3G,/G,/F,/ (3G,/D,/=B,,/(3G,,/D,/=F,/ | =E, x x E, F, x x _E, | %9
 D, x x D, E, x x E, | A,, x/ x/ x B,, C, x x D, | E,A,B,B,, E, x x E, | E, x x E, E,A,B,B,, | %13
 (3E,/F,/G,/(3=A,/B,/=B,/ CE, (3D,/=E,/^F,/(3G,/_A,/=A,/ _B,D, | %14
 (3^C,/D,/=E,/(3^F,/G,/^G,/ =A,C, (3=C,/=C/A,/(3^F,/D,/=A,,/ ^F,,D,, | %15
 G,,C,D,D,, G,,-(3G,,/B,,/D,/ G, z :: G,,G, (3z/ D,/C,/(3_B,,/=A,,/G,,/ D,D,, z2 | %17
 ^F,,^F, (3z/ =A,/G,/(3F,/=E,/D,/ G,G,, z2 | z8 | z8 | z8 | z8 | z8 | z8 | z8 | z8 | z8 | z8 | z8 | %29
 z8 | z8 | z8 | z8 | z8 | z8 | z8 | z8 | z8 | z8 | z8 | z8 | z8 | z8 | z8 | z8 | z8 | z8 | z8 | %48
 z8 | z8 | z8 | z8 | z8 | z8 | z8 | z8 | z8 | z8 | z8 | z8 | z8 | z8 | z8 | z8 | z8 | z8 | z8 | %67
 z8 | z8 | z8 | z8 | z8 | z8 | z8 | z8 | z8 | z8 | z8 | z8 | z8 | z8 | z8 | z8 | z8 | z8 | z8 | %86
 z8 | z8 | z8 | z8 | z8 | z8 | z8 | z8 | z8 | z8 | z8 | z8 | z8 |] %99
V:3
 x8 | x8 | x8 | x8 | x8 | x8 | x8 | x/ C/C/C/ C/C/C/C/ C=B, x2 | x [=egb][egb] x x [fa][fa] x | %9
 x [dfa][dfa] x x [eg][eg] x | x cd x x ef x | x4 x ee x | x ee z x4 | x8 | x8 | x8 :: x8 | x8 | %18
 x8 | x8 | x8 | x8 | x8 | x8 | x8 | x8 | x8 | x8 | x8 | x8 | x8 | x8 | x8 | x8 | x8 | x8 | x8 | %37
 x8 | x8 | x8 | x8 | x8 | x8 | x8 | x8 | x8 | x8 | x8 | x8 | x8 | x8 | x8 | x8 | x8 | x8 | x8 | %56
 x8 | x8 | x8 | x8 | x8 | x8 | x8 | x8 | x8 | x8 | x8 | x8 | x8 | x8 | x8 | x8 | x8 | x8 | x8 | %75
 x8 | x8 | x8 | x8 | x8 | x8 | x8 | x8 | x8 | x8 | x8 | x8 | x8 | x8 | x8 | x8 | x8 | x8 | x8 | %94
 x8 | x8 | x8 | x8 | x8 |] %99

